frontend/images/app/task.svg

<?xml version="1.0" encoding="UTF-8"?>
<svg width="164px" height="120px" viewBox="0 0 164 120" version="1.1" xmlns="http://www.w3.org/2000/svg" xmlns:xlink="http://www.w3.org/1999/xlink">
    <title>编组 85</title>
    <defs>
        <linearGradient x1="50%" y1="2.11019482%" x2="50%" y2="94.7852905%" id="linearGradient-1">
            <stop stop-color="#FFE8D4" offset="0%"></stop>
            <stop stop-color="#FFFFFF" stop-opacity="0" offset="100%"></stop>
        </linearGradient>
        <linearGradient x1="52.9548601%" y1="78.8556198%" x2="47.9801104%" y2="3.90356644%" id="linearGradient-2">
            <stop stop-color="#FFEFD0" stop-opacity="0.817744755" offset="0%"></stop>
            <stop stop-color="#FFEAE7" offset="100%"></stop>
        </linearGradient>
        <linearGradient x1="50%" y1="0%" x2="50%" y2="99.3908435%" id="linearGradient-3">
            <stop stop-color="#FFEBD7" offset="0%"></stop>
            <stop stop-color="#FFF8F3" offset="100%"></stop>
        </linearGradient>
        <linearGradient x1="56.9902342%" y1="100%" x2="56.9902342%" y2="12.6240884%" id="linearGradient-4">
            <stop stop-color="#FFFDF9" offset="0%"></stop>
            <stop stop-color="#FFE3D2" offset="100%"></stop>
        </linearGradient>
        <linearGradient x1="51.0920682%" y1="14.189664%" x2="107.030573%" y2="91.8370566%" id="linearGradient-5">
            <stop stop-color="#FF7400" offset="0%"></stop>
            <stop stop-color="#FFB679" offset="100%"></stop>
        </linearGradient>
        <linearGradient x1="55.0894456%" y1="78.8556198%" x2="46.3614443%" y2="2.50834332%" id="linearGradient-6">
            <stop stop-color="#FFE8D2" offset="0%"></stop>
            <stop stop-color="#FFC38B" offset="100%"></stop>
        </linearGradient>
        <path d="M2.08607196,6.71732774 C2.00766306,6.17030284 1.81580774,5.67170177 1.51050601,5.22152453 C1.20520427,4.7713473 0.886029977,4.29626402 0.552983118,3.79627472 C-0.244601217,2.06450872 -0.179400481,0.992371431 0.748585326,0.579862866 C1.88622297,-0.116589502 7.04538053,-0.565834785 4.76051467,1.53881518 C5.2894817,3.49848497 5.2894817,4.9249637 4.13076784,5.5245777 C3.35829193,5.92432036 3.00226235,6.61364427 3.06267909,7.59254944 L1.929115,7.59254944 L2.08607196,6.71732774 Z" id="path-7"></path>
    </defs>
    <g id="功能迭代" stroke="none" stroke-width="1" fill="none" fill-rule="evenodd">
        <g id="详情页1备份-3" transform="translate(-661.000000, -468.000000)">
            <g id="编组-47" transform="translate(200.000000, 140.000000)">
                <g id="编组-39" transform="translate(416.000000, 209.000000)">
                    <g id="编组-85" transform="translate(45.000000, 119.000000)">
                        <g id="编组-20">
                            <path d="M10.4743405,98.6557423 C-22.2350745,59.3279952 32.6749875,72.0734785 26.5211414,49.8656782 C20.3672952,27.657878 50.6019189,10.9562049 80.7312188,2.44733303 C110.860519,-6.0615388 133.66031,9.09991491 123.96884,25.1366111 C114.27737,41.1733074 198.271278,47.4310967 146.628581,93.9463882 C91.7746296,102.816952 41.9624478,101.105919 10.4743405,98.6557423 Z" id="路径-3" fill="url(#linearGradient-1)"></path>
                            <g id="编组-38" transform="translate(27.417260, 26.097111)">
                                <path d="M15.6482723,59.0310939 C1.73869693,56.8734377 -2.89782821,49.1635087 1.73869693,35.9013069 C8.69348463,16.0080042 17.9463606,-5.21548731 24.2799358,1.15075203 C27.7845301,4.67342054 25.7973153,17.790426 25.7518722,29.1615738 C25.7147246,38.4569551 27.5827528,47.6053128 27.12444,50.8414747 C26.4451251,55.6381387 22.6197359,58.3680118 15.6482723,59.0310939 Z" id="路径-12" fill="url(#linearGradient-2)"></path>
                                <path d="M15.6482723,19.1687815 L16.5547807,41.6438055 C17.9831014,40.8750044 18.9686512,39.022882 19.8861807,37.0043352 L20.1271867,37.3835772 C19.3095611,40.0567995 18.1023673,42.1160171 16.638941,43.7713825 L17.9463606,76.2559035 L15.6482723,76.2559035 L15.6482723,19.1687815 Z M15.6482723,50.8414747 C12.6410989,49.9319661 10.3813405,47.4839934 7.94502255,45.3994475 L7.94502255,45.7319749 C10.126404,48.4934122 12.4598875,51.0717113 15.6482723,52.6206666 L15.6482723,50.8414747 Z" id="形状结合" fill="#FFC38B"></path>
                            </g>
                            <ellipse id="蒙版" fill="url(#linearGradient-3)" opacity="0.981422061" cx="84.6153846" cy="109.74359" rx="71.7948718" ry="10.2564103"></ellipse>
                            <g id="编组-16" transform="translate(58.974359, 32.307692)">
                                <rect id="矩形" stroke="#FFDDC1" fill="url(#linearGradient-4)" x="0" y="0" width="61.5384615" height="74.8717949" rx="4"></rect>
                                <line x1="11.2820513" y1="27.4358974" x2="36.9230769" y2="27.4358974" id="路径-4"></line>
                                <line x1="11.2820513" y1="17.1794872" x2="24.1025641" y2="17.1794872" id="路径-4备份-2"></line>
                            </g>
                            <g id="编组-11备份" transform="translate(136.145320, 42.105115) rotate(99.000000) translate(-136.145320, -42.105115) translate(121.988251, 30.310244)">
                                <path d="M-1.73139855e-13,1.21353968 C4.20165592,0.404513226 8.40439785,-1.42788029e-13 12.6082258,-1.42788029e-13 C15.9085016,-1.42788029e-13 16.632545,1.44139992 14.7803557,4.32419977 C14.7803557,10.7709522 30.1494765,17.8597665 27.9987639,23.5897436 C19.2812832,20.3307556 20.4010097,24.7224242 12.6082258,22.4924808 C7.1516432,15.0925154 8.1518697,13.0327716 -1.73139855e-13,1.21353968 Z" id="paper1" fill="url(#linearGradient-5)"></path>
                                <path d="M28.281421,22.9235493 C28.8866649,17.5800782 20.9545538,11.9378016 16.0594224,0.872267235 C15.963957,2.42580912 15.3829801,3.17102104 14.9808036,4.1090687 C16.1372873,11.9317021 28.8247626,16.8057339 28.281421,22.9235493 Z" id="路径-17" fill="url(#linearGradient-6)"></path>
                            </g>
                            <g id="编组-7" transform="translate(56.726572, 93.851916)" stroke="#979797">
                                <path d="" id="路径-29"></path>
                            </g>
                            <g id="编组-19" transform="translate(71.794872, 17.948718)">
                                <path d="M18.1445221,0 C21.7697759,-1.77635684e-15 24.7086247,2.93884882 24.7086247,6.56410256 C24.7086247,6.84201103 24.6913542,7.11588577 24.657828,7.38471205 L32.2393162,7.38461538 C34.4484552,7.38461538 36.2393162,9.17547639 36.2393162,11.3846154 L36.2393162,16.4102564 L0,16.4102564 L0,11.3846154 C0,9.17547639 1.790861,7.38461538 4,7.38461538 L11.5814882,7.38471205 C11.547962,7.11588577 11.5306915,6.84201103 11.5306915,6.56410256 C11.5306915,2.93884882 14.4695404,0 18.0947941,0 L18.1445221,0 Z" id="形状结合" fill="#FF7400"></path>
                                <rect id="矩形备份-9" fill="#FFDCBF" x="15.3742554" y="3.82905983" width="5.49080549" height="5.47008547" rx="2.73504274"></rect>
                                <polygon id="矩形" fill="#FF9033" points="-1.0435622e-14 13.6752137 36.2393162 13.6752137 36.2393162 16.4102564 -1.0435622e-14 16.4102564"></polygon>
                            </g>
                        </g>
                        <g id="编组-17" transform="translate(46.041897, 71.630240)">
                            <mask id="mask-8" fill="white">
                                <use xlink:href="#path-7"></use>
                            </mask>
                            <use id="蒙版" fill="#FFE0E0" xlink:href="#path-7"></use>
                            <path d="M1.01892912,4.94349151 C1.55286047,4.716294 1.78384595,4.53994296 1.71188557,4.41443837 C1.61291072,4.24181842 1.87620702,3.93710875 1.79809254,3.88735269 C1.33878515,3.59479077 1.33878515,3.07938649 1.50891633,2.91684114 C1.67904751,2.75429579 2.13707688,2.61776744 2.68846529,3.37052094 C2.80058613,3.24093286 2.74629567,2.75504676 2.52559389,1.91286264 L5.4402401,1.37114321 L7.47416233,-0.723627796 L0.604518609,-1.19518107 L-1.703917,0.921344504 L-1.703917,3.37052094 L0.0825110697,5.66087881 L1.01892912,4.94349151 Z" id="路径-8" fill="#5B4646" mask="url(#mask-8)"></path>
                            <path d="M6.89782459,41.0233686 C8.41337991,41.0454453 9.02919409,40.9066629 8.74526711,40.6070214 C8.46134014,40.3073799 7.39764582,39.9734932 5.55418416,39.6053615 L8.74526711,20.0826606 L2.80695889,18.4188969 L2.3587341,21.602454 L3.37488584,23.885886 L3.75639508,41.0233686 L6.89782459,41.0233686 Z" id="路径-5" fill="#5B4E41"></path>
                            <path d="M1.71188557,6.5839591 L1.71188557,6.01612263 C3.20231099,6.32998541 4.06203463,6.57592681 4.29105649,6.75394684 C4.52007835,6.93196686 4.63292164,7.16362914 4.62958637,7.44893368 L1.89435247,7.07809337 L1.71188557,6.5839591 Z" id="路径-7" fill="#FFC38B"></path>
                            <path d="M10.4913036,20.3909456 L2.08504016,20.7515419 L1.71188557,6.5841573 C5.69633428,6.55332441 9.02852778,9.75430961 10.4913036,20.3909456 Z" id="路径-6" fill="#FF7400"></path>
                            <path d="M3.17077188,9.12609636 C3.7032176,8.57808123 4.82220985,8.65841587 5.6163553,9.31172279 C6.14578561,9.74726075 6.81581938,10.9104881 7.62645663,12.8014048 L13.2134848,8.38526877 L14.1793103,9.31172279 C12.0364827,11.6827889 9.89888637,14.0638004 7.19612453,15.3703638 C5.34681737,14.3802587 4.06645543,12.8609092 2.88512267,11.2494407 C2.72059166,10.1992212 2.81580806,9.49143979 3.17077188,9.12609636 Z" id="路径-9" fill="#FFB273"></path>
                            <path d="M13.2134848,8.38526877 L13.8332825,6.97229254 C14.6528492,6.02830156 15.1393794,5.59116365 15.2928732,5.66087881 C15.6920979,5.84220219 15.7878443,5.97731305 15.7878443,6.38220277 C15.7878443,6.78709248 15.7415289,7.08844591 15.2928732,7.90555381 C14.9937694,8.45029241 14.6225818,8.9190154 14.1793103,9.31172279 L13.2134848,8.38526877 Z" id="路径-10" fill="#FFE0E0"></path>
                        </g>
                        <g id="编组-16" transform="translate(70.256410, 48.717949)" fill="#FFFFFF" fill-rule="nonzero">
                            <path d="M25.6410256,9.48717949 C26.4906945,9.48717949 27.1794872,10.1759722 27.1794872,11.025641 C27.1794872,11.8449646 26.5390154,12.5146979 25.7314219,12.5614909 L25.6410256,12.5641026 L-6.66133815e-16,12.5641026 C-0.849668846,12.5641026 -1.53846154,11.8753099 -1.53846154,11.025641 C-1.53846154,10.2063175 -0.897989762,9.53658416 -0.0903963016,9.48979112 L-6.66133815e-16,9.48717949 L25.6410256,9.48717949 Z" id="路径-4"></path>
                            <path d="M12.8205128,-0.769230769 C13.6701817,-0.769230769 14.3589744,-0.0804380767 14.3589744,0.769230769 C14.3589744,1.5885543 13.7185026,2.25828763 12.9109091,2.30508067 L12.8205128,2.30769231 L-4.4408921e-16,2.30769231 C-0.849668846,2.30769231 -1.53846154,1.61889962 -1.53846154,0.769230769 C-1.53846154,-0.0500927607 -0.897989762,-0.719826092 -0.0903963016,-0.766619132 L-4.4408921e-16,-0.769230769 L12.8205128,-0.769230769 Z" id="路径-4备份-2"></path>
                        </g>
                    </g>
                </g>
            </g>
        </g>
    </g>
</svg>

<svg xmlns="http://www.w3.org/2000/svg" xmlns:xlink="http://www.w3.org/1999/xlink" width="164" height="120"><defs><linearGradient id="a" x1="50%" x2="50%" y1="2.11%" y2="94.785%"><stop offset="0%" stop-color="#FFE8D4"/><stop offset="100%" stop-color="#FFF" stop-opacity="0"/></linearGradient><linearGradient id="b" x1="52.955%" x2="47.98%" y1="78.856%" y2="3.904%"><stop offset="0%" stop-color="#FFEFD0" stop-opacity=".818"/><stop offset="100%" stop-color="#FFEAE7"/></linearGradient><linearGradient id="c" x1="50%" x2="50%" y1="0%" y2="99.391%"><stop offset="0%" stop-color="#FFEBD7"/><stop offset="100%" stop-color="#FFF8F3"/></linearGradient><linearGradient id="d" x1="56.99%" x2="56.99%" y1="100%" y2="12.624%"><stop offset="0%" stop-color="#FFFDF9"/><stop offset="100%" stop-color="#FFE3D2"/></linearGradient><linearGradient id="e" x1="51.092%" x2="107.031%" y1="14.19%" y2="91.837%"><stop offset="0%" stop-color="#FF7400"/><stop offset="100%" stop-color="#FFB679"/></linearGradient><linearGradient id="f" x1="55.089%" x2="46.361%" y1="78.856%" y2="2.508%"><stop offset="0%" stop-color="#FFE8D2"/><stop offset="100%" stop-color="#FFC38B"/></linearGradient><path id="g" d="M2.086 6.717a3.52 3.52 0 0 0-.575-1.495c-.306-.45-.625-.926-.958-1.426C-.245 2.065-.179.992.749.58c1.137-.697 6.296-1.146 4.012.959.528 1.96.528 3.386-.63 3.986-.773.4-1.129 1.089-1.068 2.068H1.929l.157-.876Z"/></defs><g fill="none" fill-rule="evenodd"><g><path fill="url(#a)" d="M10.474 98.656c-32.71-39.328 22.201-26.583 16.047-48.79-6.154-22.208 24.08-38.91 54.21-47.419 30.13-8.509 52.93 6.653 43.238 22.69-9.692 16.036 74.302 22.294 22.66 68.81-54.854 8.87-104.667 7.159-136.155 4.709Z"/><path fill="url(#b)" d="M15.648 59.031c-13.91-2.158-18.546-9.867-13.91-23.13C8.694 16.008 17.947-5.215 24.28 1.151c3.505 3.522 1.517 16.64 1.472 28.01-.037 9.296 1.83 18.444 1.372 21.68-.679 4.797-4.504 7.527-11.476 8.19Z" transform="translate(27.417 26.097)"/><path fill="#FFC38B" d="m43.066 45.266.906 22.475c1.428-.769 2.414-2.621 3.331-4.64l.241.38c-.817 2.673-2.024 4.732-3.488 6.387l1.308 32.485h-2.298V45.266Zm0 31.673c-3.008-.91-5.267-3.358-7.704-5.442v.332c2.182 2.762 4.515 5.34 7.704 6.889v-1.78Z"/><ellipse cx="84.615" cy="109.744" fill="url(#c)" opacity=".981" rx="71.795" ry="10.256"/><g transform="translate(58.974 32.308)"><rect width="61.538" height="74.872" fill="url(#d)" stroke="#FFDDC1" rx="4"/><path d="M11.282 27.436h25.641M11.282 17.179h12.821"/></g><path fill="url(#e)" d="M0 1.214A66.542 66.542 0 0 1 12.608 0c3.3 0 4.025 1.441 2.172 4.324C14.78 10.771 30.15 17.86 28 23.59c-8.718-3.26-7.598 1.132-15.39-1.098C7.151 15.092 8.151 13.032 0 1.214Z" transform="rotate(99 62.207 79.044)"/><path fill="url(#f)" d="M28.281 22.924C28.887 17.58 20.955 11.938 16.06.872c-.095 1.554-.676 2.299-1.078 3.237 1.156 7.823 13.844 12.697 13.3 18.815Z" transform="rotate(99 62.207 79.044)"/><g transform="translate(71.795 17.949)"><path fill="#FF7400" d="M18.145 0a6.564 6.564 0 0 1 6.513 7.385h7.581a4 4 0 0 1 4 4v5.025H0v-5.025a4 4 0 0 1 4-4h7.581A6.564 6.564 0 0 1 18.094 0h.05Z"/><rect width="5.491" height="5.47" x="15.374" y="3.829" fill="#FFDCBF" rx="2.735"/><path fill="#FF9033" d="M0 13.675h36.239v2.735H0z"/></g></g><g transform="translate(46.042 71.63)"><mask id="h" fill="#fff"><use xlink:href="#g"/></mask><use xlink:href="#g" fill="#FFE0E0"/><path fill="#5B4646" d="M1.019 4.943c.534-.227.765-.403.693-.529-.1-.172.164-.477.086-.527-.46-.292-.46-.808-.29-.97.171-.163.63-.3 1.18.454.113-.13.058-.616-.162-1.458L5.44 1.37 7.474-.724l-6.87-.471L-1.703.92v2.45L.083 5.66l.936-.718Z" mask="url(#h)"/><path fill="#5B4E41" d="M6.898 41.023c1.515.022 2.131-.116 1.847-.416-.284-.3-1.347-.634-3.19-1.002l3.19-19.522-5.938-1.664-.448 3.183 1.016 2.284.381 17.137h3.142Z"/><path fill="#FFC38B" d="M1.712 6.584v-.568c1.49.314 2.35.56 2.58.738.228.178.34.41.338.695l-2.736-.37-.182-.495Z"/><path fill="#FF7400" d="m10.491 20.39-8.406.362-.373-14.168c3.984-.03 7.317 3.17 8.78 13.807Z"/><path fill="#FFB273" d="M3.17 9.126c.533-.548 1.652-.468 2.446.186.53.435 1.2 1.598 2.01 3.49l5.587-4.417.966.927c-2.143 2.37-4.28 4.752-6.983 6.058-1.85-.99-3.13-2.51-4.31-4.12-.165-1.05-.07-1.759.285-2.124Z"/><path fill="#FFE0E0" d="m13.213 8.385.62-1.413c.82-.944 1.306-1.38 1.46-1.311.4.181.495.316.495.721 0 .405-.046.706-.495 1.524-.3.544-.67 1.013-1.114 1.406l-.966-.927Z"/></g><g fill="#FFF" fill-rule="nonzero"><path d="M95.897 58.205a1.538 1.538 0 0 1 .09 3.074l-.09.003h-25.64a1.538 1.538 0 0 1-.091-3.074l.09-.003h25.641ZM83.077 47.949a1.538 1.538 0 0 1 .09 3.074l-.09.003h-12.82a1.538 1.538 0 0 1-.091-3.075l.09-.002h12.82Z"/></g></g></svg>
